img/expertise.svg

<svg width="80" height="80" viewBox="0 0 80 80" fill="none" xmlns="http://www.w3.org/2000/svg">
<path d="M68.3333 20H61.6667C55.2333 20 50 25.2333 50 31.6667V45C50 49.6367 52.74 53.6167 56.6667 55.4967V76.6667C56.6667 78.5067 58.16 80 60 80C61.84 80 63.3333 78.5067 63.3333 76.6667V56.6667H66.6667V76.6667C66.6667 78.5067 68.16 80 70 80C71.84 80 73.3333 78.5067 73.3333 76.6667V55.4967C77.26 53.6167 80 49.6367 80 45V31.6667C80 25.2333 74.7667 20 68.3333 20ZM56.6667 8.33333C56.6667 3.73 60.3967 0 65 0C69.6033 0 73.3333 3.73 73.3333 8.33333C73.3333 12.9367 69.6033 16.6667 65 16.6667C60.3967 16.6667 56.6667 12.9367 56.6667 8.33333ZM40 8.33333C40 3.73 43.73 0 48.3333 0C49.6733 0 50.9233 0.346667 52.0467 0.91C50.78 3.10667 50 5.62 50 8.33333C50 11.0467 50.78 13.56 52.05 15.7567C50.9267 16.32 49.6767 16.6667 48.3333 16.6667C43.73 16.6667 40 12.9367 40 8.33333ZM23.3333 8.33333C23.3333 3.73 27.0633 0 31.6667 0C33.0067 0 34.2567 0.346667 35.38 0.91C34.1133 3.10667 33.3333 5.62 33.3333 8.33333C33.3333 11.0467 34.1133 13.56 35.3833 15.7567C34.26 16.32 33.01 16.6667 31.6667 16.6667C27.0633 16.6667 23.3333 12.9367 23.3333 8.33333ZM6.66667 8.33333C6.66667 3.73 10.3967 0 15 0C16.34 0 17.59 0.346667 18.7133 0.91C17.4467 3.10667 16.6667 5.62 16.6667 8.33333C16.6667 11.0467 17.4467 13.56 18.7167 15.7567C17.5933 16.32 16.3433 16.6667 15 16.6667C10.3967 16.6667 6.66667 12.9367 6.66667 8.33333ZM47.5367 20C44.9133 23.1733 43.3333 27.24 43.3333 31.6667V73.3333C43.3333 75.1733 41.84 76.6667 40 76.6667C38.16 76.6667 36.6667 75.1733 36.6667 73.3333V53.1633C34.5567 51 33.3333 48.0567 33.3333 45V31.6667C33.3333 25.2333 38.5667 20 45 20H47.5367ZM30.87 20C28.2467 23.1733 26.6667 23.9067 26.6667 28.3333V66.6667C26.6667 68.5067 25.1733 70 23.3333 70C21.4933 70 20 68.5067 20 66.6667V49.83C17.89 47.6667 16.6667 44.7233 16.6667 41.6667V31.6667C16.6667 25.2333 21.9 20 28.3333 20H30.87ZM14.2033 20C11.58 23.1733 10 23.9067 10 28.3333V60C10 61.84 8.50667 63.3333 6.66667 63.3333C4.82667 63.3333 3.33333 61.84 3.33333 60V46.4967C1.22333 44.3333 0 41.39 0 38.3333V31.6667C0 25.2333 5.23333 20 11.6667 20H14.2033Z" fill="#EFBE4C"/>
</svg>

<svg width="80" height="80" fill="none" xmlns="http://www.w3.org/2000/svg"><path d="M68.333 20h-6.666C55.233 20 50 25.233 50 31.667V45c0 4.637 2.74 8.617 6.667 10.497v21.17a3.334 3.334 0 006.666 0v-20h3.334v20a3.334 3.334 0 006.666 0v-21.17C77.26 53.617 80 49.637 80 45V31.667C80 25.233 74.767 20 68.333 20zM56.667 8.333A8.332 8.332 0 0165 0a8.332 8.332 0 018.333 8.333A8.332 8.332 0 0165 16.667a8.332 8.332 0 01-8.333-8.334zM40 8.333A8.332 8.332 0 0148.333 0c1.34 0 2.59.347 3.714.91C50.78 3.107 50 5.62 50 8.333c0 2.714.78 5.227 2.05 7.424-1.123.563-2.373.91-3.717.91A8.332 8.332 0 0140 8.333zm-16.667 0A8.332 8.332 0 0131.667 0c1.34 0 2.59.347 3.713.91-1.267 2.197-2.047 4.71-2.047 7.423 0 2.714.78 5.227 2.05 7.424-1.123.563-2.373.91-3.716.91a8.332 8.332 0 01-8.334-8.334zm-16.666 0A8.332 8.332 0 0115 0c1.34 0 2.59.347 3.713.91-1.266 2.197-2.046 4.71-2.046 7.423 0 2.714.78 5.227 2.05 7.424-1.124.563-2.374.91-3.717.91a8.332 8.332 0 01-8.333-8.334zM47.537 20a18.256 18.256 0 00-4.204 11.667v41.666A3.335 3.335 0 0140 76.667a3.335 3.335 0 01-3.333-3.334v-20.17A11.741 11.741 0 0133.333 45V31.667C33.333 25.233 38.567 20 45 20h2.537zM30.87 20c-2.623 3.173-4.203 3.907-4.203 8.333v38.334a3.335 3.335 0 01-6.667 0V49.83a11.741 11.741 0 01-3.333-8.163v-10C16.667 25.233 21.9 20 28.333 20h2.537zm-16.667 0C11.58 23.173 10 23.907 10 28.333V60a3.335 3.335 0 01-6.667 0V46.497A11.742 11.742 0 010 38.333v-6.666C0 25.233 5.233 20 11.667 20h2.536z" fill="#EFBE4C"/></svg>
